X: 1
T: Reel de Minuit
M:2/4
L:1/16
Z:abc by Bruce Osborne - bosborne@kos.net
K:D
AG |\
"D"F2D2 DFAF | "A7"G2E2 E3F | "G(Em)"GFGA BGBd | "A7"ceAc dBAG |
"D"F2D2 DFAF | "A7"G2E2 E3F | "G(Em)"GFGA "A7"BGEG | "D"F2D2 D2 :|
|: de |\
"D"f2df "A"edce | "D(Bm)"dfec dcBA | "G"GBef "(Em)"gfgf | "A7"edcB Acde |
"D"f2df "A"edce | "D(Bm)"dfec dcBA | "G"GABc "A7"dBAG | "D"F2D2 D2 :|

%%sep 1 1 500

